X:1829
T:Evesham
O:england
S:
N:
H:abcTranscriber: Alex Boster <boster@acm.org>
H:(as transcribed by Adger Williams from a Belles of the North performance
H:
A:Ilmington
R:Reel
P:A(AB)$^4$A
%P:A(AB)4A
%:
%:
K:D
M:4/4
L:1/8
P:A
FG AF G2 B2 | A2 de f2 d2 | g2 f2 e2 d2 | edcB AGFE |
FG AF G2 B2 | A2 de f2 d2 | gfed cABc | d2 f2 d4 ||
P:B
|: ec A2 ec A2 | g2 f2 ec A2 | g2 f2 e2 d2 | edcB AGFE |
FG AF G2 B2 | A2 de f2 d2 | gfed cABc | d2 f2 d4 :|


